X:1
T:Title
L:1/8
M:4/4
I:linebreak $
K:G
V:1 treble nm="Voice"
V:1
"G" dedB G2 d>d | dedB"C" c A3 |"D" DEFG A2 c>c |1"G" B2 A2 G2 d>d :|2"G" B2 A2 G2 B>B || %5
"G" BcBG"Em" E3 G |"D" F3 ^D"Em" E2 B>B |"G" BcBG"Em" E3 B | e3 d"G" B2 B>B |"G" BcBG"Em" E2 B>B | %10
"G" Bdgf"Em" e4 |"G" dd/d/ dB"C" cc/c/ cA |"G" BG"D"AF"G" G z d>d |] %13
